image/mail.svg

<svg width="20" height="20" viewBox="0 0 20 20" fill="none" xmlns="http://www.w3.org/2000/svg">
<path d="M1 0.845322H19C19.2652 0.845322 19.5196 0.952965 19.7071 1.14457C19.8946 1.33618 20 1.59605 20 1.86702V18.2143C20 18.4852 19.8946 18.7451 19.7071 18.9367C19.5196 19.1283 19.2652 19.236 19 19.236H1C0.734784 19.236 0.48043 19.1283 0.292893 18.9367C0.105357 18.7451 0 18.4852 0 18.2143V1.86702C0 1.59605 0.105357 1.33618 0.292893 1.14457C0.48043 0.952965 0.734784 0.845322 1 0.845322ZM10.06 9.71677L3.648 4.1536L2.353 5.71067L10.073 12.4079L17.654 5.70556L16.346 4.15973L10.061 9.71677H10.06Z" fill="#409DE2"/>
</svg>

<svg xmlns="http://www.w3.org/2000/svg" fill="none" width="20" height="20" viewBox="0 0 20 20"><path d="M1 .845h18a.99.99 0 0 1 .707.3c.188.191.293.451.293.722v16.347c0 .271-.105.531-.293.723a.99.99 0 0 1-.707.299H1a.99.99 0 0 1-.707-.3A1.033 1.033 0 0 1 0 18.215V1.867c0-.271.105-.53.293-.722A.99.99 0 0 1 1 .845zm9.06 8.872L3.648 4.154 2.353 5.71l7.72 6.697 7.581-6.702-1.308-1.546-6.285 5.557h-.001z" fill="#409DE2"/></svg>
